X:1
T:Revive the Hearts of All
T:Revive the Hearts of All
T:John Robson Sweney
T:James Milton Black, 1889
T:Public Domain Courtesy of the Cyber Hymnal™
C:John Robson Sweney
Z:Public Domain
Z:Courtesy of the Cyber Hymnal™
%%score ( 1 2 ) 3
L:1/8
Q:1/4=98
M:3/4
K:Ab
V:1 treble 
V:2 treble 
V:3 bass 
V:1
 [CE][CE] | [DF]3 [CE] [CE][EA] | [EA]2 [EG]2 [EG][EA] | [EB]3 [EB] [EA][EB] | [Ec]4 [CE][CE] | %5
w: 1.~God is|here, and that to|bless us With the|Spir- it’s quicken- ing|power; See, the|
w: 2.~God is|here! we feel His|pre- sence In this|con- se- crat- ed|place; But we|
w: 3.~God is|here! oh, then, be-|liev- ing, Bring to|Him our one de-|sire, That His|
w: 4.~Sav- ior,|grant the prayer we|of- fer, While in|sim- ple faith we|bow, From the|
 [DF]3 [CE] [CE][EA] | [EA]2 [EG]2 [EB][EB] | [=DB]3 [DB] [DA][DF] | E4 ||"^Refrain" EE | %10
w: cloud al- read- y|bend- ing, Waits to|drop the grate- ful|shower.||
w: need the soul re-|fresh- ing Of His|free, un- bound- ed|grace.|Let it|
w: love may now be|kin- dled, Till its|flame each heart in-|spire.||
w: win- dows of Thy|mer- cy Pour us|out a bless- ing|now.||
 d3 [EB] [EA][EB] | [Ec]2 [CA]2 cd | e3 [EA] [EG][EA] | [GB]4 [Ec][DB] | [CA]3 [CE] [EA][EG] | %15
w: |||||
w: come, O Lord, we|pray Thee, Let the|shower of bless- ing|fall; We are|wait- ing, we are|
w: |||||
w: |||||
 [EG]2 [DF]2 [DB][Ec] | [Fd]3 [FB] [EA][EG] | [EA]4 |] %18
w: |||
w: wait- ing, Oh, re-|vive the hearts of|all.|
w: |||
w: |||
V:2
 x2 | x6 | x6 | x6 | x6 | x6 | x6 | x6 | E4 || x2 | (GG G) x3 | x6 | (EE E) x3 | x6 | x6 | x6 | %16
 x6 | x4 |] %18
V:3
 [A,,A,][A,,A,] | [A,,A,]3 [A,,A,] [A,,A,][A,,C] | [E,C]2 [E,B,]2 [E,B,][E,C] | %3
w: ~ ~|~ ~ ~ ~|~ ~ ~ ~|
 [E,D]3 [D,G,] [C,A,][B,,G,] | [A,,A,]4 [A,,A,][A,,A,] | [A,,A,]3 [A,,A,] [A,,A,][A,,C] | %6
w: ~ ~ ~ ~|~ ~ ~|~ ~ ~ ~|
 [E,C]2 [E,B,]2 [E,G,][E,G,] | [B,,F,]3 [B,,F,] [B,,F,][B,,A,] | [E,G,]4 || z2 | %10
w: ~ ~ ~ ~|~ ~ ~ ~|~||
 [E,B,][E,B,] [E,B,][E,G,] [E,F,][E,G,] | [A,,A,]2 [A,,E,]2 z2 | [A,C][A,C] [A,C][CE] [B,E][A,C] | %13
w: Let it come, ~ ~ ~|~ ~|~ Let the shower ~ ~|
 [E,E]4 z2 | [A,,E,][A,,E,] [A,,E,][A,,A,] [C,A,][C,A,] | [D,A,]2 [D,A,]2 z2 | %16
w: ~|We are wait- ing, ~ ~|~ ~|
 [B,,B,][B,,B,] [B,,B,][D,B,] [E,C][E,D] | [A,,C]4 |] %18
w: Oh, re- vive * * *||

